docs/icons/stackoverflow.svg

<svg width="128" height="128" viewBox="0 0 128 128" fill="none" xmlns="http://www.w3.org/2000/svg">

<path fill-rule="evenodd" clip-rule="evenodd" d="M41 73H32V99H93V73H85V91H41V73Z" fill="#C4C4C4"/>
<path d="M47 78H80V85H47V78Z" fill="#E6853D"/>
<path d="M48.0425 65L80.6745 69.9145L79.632 76.8365L47 71.9219L48.0425 65Z" fill="#E6853D"/>
<path d="M53.85 49L83.991 62.4357L81.141 68.8293L51 55.3936L53.85 49Z" fill="#E6853D"/>
<path d="M63.5747 35.6683L89.4159 56.1923L85.0623 61.6737L59.2211 41.1498L63.5747 35.6683Z" fill="#E6853D"/>
<path d="M75.3135 25L96.7966 50.0495L91.483 54.6065L69.9999 29.557L75.3135 25Z" fill="#E6853D"/>
</svg>

<svg xmlns="http://www.w3.org/2000/svg" width="128" height="128" fill="none" xmlns:v="https://vecta.io/nano"><path fill-rule="evenodd" d="M41 73H32V99H93V73H85V91H41V73Z" fill="#c4c4c4"/><path d="M47 78h33v7H47v-7zm1.043-13l32.632 4.915-1.042 6.922L47 71.922 48.043 65zm5.807-16l30.141 13.436-2.85 6.394L51 55.394 53.85 49zm9.725-13.332l25.841 20.524-4.354 5.481L59.221 41.15l4.354-5.481zM75.314 25l21.483 25.05-5.314 4.557L70 29.557 75.314 25z" fill="#e6853d"/></svg>
